apps/web/src/images/integrations/aws-color.svg

<svg width="600" height="600" fill="none" xmlns="http://www.w3.org/2000/svg"><path d="M169.086 251.309c0 7.383.798 13.37 2.195 17.76 1.596 4.39 3.592 9.179 6.386 14.368.997 1.596 1.397 3.193 1.397 4.589 0 1.996-1.198 3.992-3.792 5.987l-12.572 8.381c-1.796 1.198-3.592 1.796-5.188 1.796-1.996 0-3.991-.997-5.987-2.793a61.826 61.826 0 0 1-7.184-9.379c-1.995-3.393-3.991-7.184-6.186-11.774-15.565 18.359-35.121 27.538-58.669 27.538-16.762 0-30.132-4.789-39.91-14.368-9.779-9.578-14.767-22.35-14.767-38.314 0-16.962 5.986-30.731 18.159-41.108 12.173-10.377 28.337-15.565 48.89-15.565 6.785 0 13.77.598 21.153 1.596 7.384.998 14.967 2.594 22.949 4.39v-14.567c0-15.166-3.193-25.742-9.379-31.929-6.386-6.186-17.162-9.179-32.527-9.179-6.985 0-14.169.798-21.552 2.594-7.384 1.796-14.567 3.991-21.552 6.785-3.193 1.397-5.587 2.195-6.984 2.594-1.397.399-2.395.599-3.193.599-2.794 0-4.19-1.996-4.19-6.186v-9.778c0-3.193.398-5.588 1.396-6.985.998-1.397 2.794-2.794 5.588-4.19 6.984-3.592 15.365-6.586 25.143-8.98 9.779-2.595 20.155-3.792 31.13-3.792 23.748 0 41.109 5.388 52.284 16.164 10.975 10.776 16.563 27.139 16.563 49.09v64.656h.399Zm-81.019 30.332c6.585 0 13.37-1.198 20.554-3.592 7.184-2.395 13.57-6.785 18.958-12.772 3.193-3.791 5.587-7.982 6.785-12.771 1.197-4.789 1.995-10.576 1.995-17.361v-8.382c-5.787-1.396-11.973-2.594-18.359-3.392-6.386-.798-12.572-1.197-18.758-1.197-13.37 0-23.148 2.594-29.733 7.982-6.586 5.388-9.779 12.971-9.779 22.949 0 9.379 2.395 16.363 7.384 21.152 4.79 4.989 11.774 7.384 20.953 7.384Zm160.242 21.552c-3.592 0-5.987-.599-7.583-1.996-1.597-1.197-2.994-3.991-4.191-7.783L189.64 139.159c-1.197-3.991-1.796-6.585-1.796-7.982 0-3.193 1.596-4.989 4.789-4.989h19.556c3.792 0 6.386.599 7.783 1.996 1.597 1.197 2.794 3.991 3.991 7.783l33.525 132.104 31.131-132.104c.997-3.992 2.195-6.586 3.791-7.783 1.597-1.197 4.39-1.996 7.982-1.996h15.965c3.791 0 6.385.599 7.982 1.996 1.596 1.197 2.993 3.991 3.791 7.783l31.53 133.7 34.522-133.7c1.198-3.992 2.595-6.586 3.992-7.783 1.596-1.197 4.19-1.996 7.782-1.996h18.559c3.192 0 4.988 1.597 4.988 4.989 0 .998-.199 1.996-.399 3.193-.199 1.197-.598 2.794-1.397 4.989l-48.092 154.255c-1.197 3.991-2.594 6.585-4.191 7.783-1.596 1.197-4.19 1.995-7.583 1.995H350.68c-3.792 0-6.386-.599-7.982-1.995-1.597-1.397-2.994-3.992-3.792-7.983l-30.931-128.712-30.731 128.513c-.998 3.991-2.195 6.585-3.792 7.982-1.596 1.397-4.39 1.996-7.982 1.996h-17.161Zm256.426 5.387c-10.377 0-20.753-1.197-30.731-3.591-9.978-2.395-17.76-4.989-22.949-7.983-3.193-1.796-5.388-3.791-6.186-5.587a14.091 14.091 0 0 1-1.197-5.588v-10.177c0-4.191 1.596-6.186 4.59-6.186 1.197 0 2.394.2 3.591.599 1.198.399 2.994 1.197 4.989 1.995a108.617 108.617 0 0 0 21.951 6.985c7.982 1.596 15.765 2.394 23.747 2.394 12.572 0 22.35-2.195 29.135-6.585 6.785-4.39 10.377-10.776 10.377-18.958 0-5.587-1.796-10.177-5.388-13.968-3.592-3.792-10.377-7.184-20.155-10.377l-28.935-8.98c-14.568-4.59-25.344-11.375-31.929-20.355-6.585-8.78-9.978-18.558-9.978-28.935 0-8.381 1.796-15.765 5.388-22.15 3.592-6.386 8.381-11.974 14.368-16.364 5.987-4.59 12.772-7.982 20.754-10.377 7.982-2.394 16.363-3.392 25.143-3.392 4.391 0 8.98.2 13.371.798 4.589.599 8.78 1.397 12.971 2.195 3.991.998 7.782 1.996 11.374 3.193 3.592 1.197 6.386 2.395 8.381 3.592 2.794 1.597 4.79 3.193 5.987 4.989 1.197 1.596 1.796 3.791 1.796 6.585v9.379c0 4.191-1.596 6.386-4.59 6.386-1.596 0-4.19-.798-7.583-2.395-11.374-5.188-24.146-7.782-38.314-7.782-11.375 0-20.355 1.796-26.541 5.587-6.186 3.792-9.379 9.579-9.379 17.761 0 5.587 1.996 10.376 5.987 14.168 3.991 3.791 11.374 7.583 21.951 10.975l28.336 8.98c14.368 4.59 24.745 10.976 30.931 19.157 6.186 8.182 9.18 17.561 9.18 27.938 0 8.581-1.796 16.363-5.189 23.148-3.592 6.785-8.381 12.772-14.567 17.561-6.186 4.989-13.57 8.581-22.151 11.175-8.98 2.794-18.359 4.19-28.536 4.19Z" fill="#252F3E"/><path fill-rule="evenodd" clip-rule="evenodd" d="M542.451 405.564c-65.653 48.491-161.04 74.234-243.057 74.234-114.943 0-218.51-42.505-296.736-113.147-6.186-5.588-.599-13.171 6.785-8.781 84.61 49.09 188.977 78.824 296.936 78.824 72.837 0 152.858-15.166 226.493-46.296 10.976-4.989 20.355 7.183 9.579 15.166Z" fill="#F90"/><path fill-rule="evenodd" clip-rule="evenodd" d="M569.79 374.433c-8.382-10.776-55.476-5.188-76.828-2.594-6.386.798-7.384-4.789-1.597-8.98 37.516-26.341 99.178-18.758 106.362-9.978 7.184 8.98-1.995 70.642-37.117 100.176-5.388 4.59-10.576 2.195-8.181-3.791 7.982-19.756 25.742-64.257 17.361-74.833Z" fill="#F90"/></svg>

<svg width="600" height="600" viewBox="0 0 600 600" fill="none" xmlns="http://www.w3.org/2000/svg">
<path d="M169.086 251.309C169.086 258.692 169.884 264.679 171.281 269.069C172.877 273.459 174.873 278.248 177.667 283.437C178.664 285.033 179.064 286.63 179.064 288.026C179.064 290.022 177.866 292.018 175.272 294.013L162.7 302.394C160.904 303.592 159.108 304.19 157.512 304.19C155.516 304.19 153.521 303.193 151.525 301.397C148.731 298.403 146.337 295.21 144.341 292.018C142.346 288.625 140.35 284.834 138.155 280.244C122.59 298.603 103.034 307.782 79.4863 307.782C62.7238 307.782 49.3537 302.993 39.5756 293.414C29.7974 283.836 24.8086 271.064 24.8086 255.1C24.8086 238.138 30.7952 224.369 42.968 213.992C55.1408 203.615 71.3046 198.427 91.8586 198.427C98.6435 198.427 105.628 199.025 113.011 200.023C120.395 201.021 127.978 202.617 135.96 204.413V189.846C135.96 174.68 132.767 164.104 126.581 157.917C120.195 151.731 109.419 148.738 94.0537 148.738C87.0693 148.738 79.8854 149.536 72.5019 151.332C65.1184 153.128 57.9345 155.323 50.9501 158.117C47.7573 159.514 45.3626 160.312 43.9657 160.711C42.5689 161.11 41.5711 161.31 40.7729 161.31C37.9791 161.31 36.5823 159.314 36.5823 155.124V145.346C36.5823 142.153 36.9814 139.758 37.9791 138.361C38.9769 136.964 40.7729 135.567 43.5666 134.171C50.551 130.579 58.9323 127.585 68.7104 125.191C78.4885 122.596 88.8653 121.399 99.8408 121.399C123.588 121.399 140.949 126.787 152.124 137.563C163.099 148.339 168.687 164.702 168.687 186.653V251.309H169.086ZM88.0671 281.641C94.6524 281.641 101.437 280.443 108.621 278.049C115.805 275.654 122.191 271.264 127.579 265.277C130.772 261.486 133.166 257.295 134.364 252.506C135.561 247.717 136.359 241.93 136.359 235.145V226.763C130.572 225.367 124.386 224.169 118 223.371C111.614 222.573 105.428 222.174 99.2421 222.174C85.872 222.174 76.0939 224.768 69.5086 230.156C62.9233 235.544 59.7305 243.127 59.7305 253.105C59.7305 262.484 62.1251 269.468 67.114 274.257C71.9033 279.246 78.8876 281.641 88.0671 281.641ZM248.309 303.193C244.717 303.193 242.322 302.594 240.726 301.197C239.129 300 237.732 297.206 236.535 293.414L189.64 139.159C188.443 135.168 187.844 132.574 187.844 131.177C187.844 127.984 189.44 126.188 192.633 126.188H212.189C215.981 126.188 218.575 126.787 219.972 128.184C221.569 129.381 222.766 132.175 223.963 135.967L257.488 268.071L288.619 135.967C289.616 131.975 290.814 129.381 292.41 128.184C294.007 126.987 296.8 126.188 300.392 126.188H316.357C320.148 126.188 322.742 126.787 324.339 128.184C325.935 129.381 327.332 132.175 328.13 135.967L359.66 269.667L394.182 135.967C395.38 131.975 396.777 129.381 398.174 128.184C399.77 126.987 402.364 126.188 405.956 126.188H424.515C427.707 126.188 429.503 127.785 429.503 131.177C429.503 132.175 429.304 133.173 429.104 134.37C428.905 135.567 428.506 137.164 427.707 139.359L379.615 293.614C378.418 297.605 377.021 300.199 375.424 301.397C373.828 302.594 371.234 303.392 367.841 303.392H350.68C346.888 303.392 344.294 302.793 342.698 301.397C341.101 300 339.704 297.405 338.906 293.414L307.975 164.702L277.244 293.215C276.246 297.206 275.049 299.8 273.452 301.197C271.856 302.594 269.062 303.193 265.47 303.193H248.309ZM504.735 308.58C494.358 308.58 483.982 307.383 474.004 304.989C464.026 302.594 456.244 300 451.055 297.006C447.862 295.21 445.667 293.215 444.869 291.419C444.071 289.623 443.672 287.627 443.672 285.831V275.654C443.672 271.463 445.268 269.468 448.262 269.468C449.459 269.468 450.656 269.668 451.853 270.067C453.051 270.466 454.847 271.264 456.842 272.062C463.627 275.055 471.011 277.45 478.793 279.047C486.775 280.643 494.558 281.441 502.54 281.441C515.112 281.441 524.89 279.246 531.675 274.856C538.46 270.466 542.052 264.08 542.052 255.898C542.052 250.311 540.256 245.721 536.664 241.93C533.072 238.138 526.287 234.746 516.509 231.553L487.574 222.573C473.006 217.983 462.23 211.198 455.645 202.218C449.06 193.438 445.667 183.66 445.667 173.283C445.667 164.902 447.463 157.518 451.055 151.133C454.647 144.747 459.436 139.159 465.423 134.769C471.41 130.179 478.195 126.787 486.177 124.392C494.159 121.998 502.54 121 511.32 121C515.711 121 520.3 121.2 524.691 121.798C529.28 122.397 533.471 123.195 537.662 123.993C541.653 124.991 545.444 125.989 549.036 127.186C552.628 128.383 555.422 129.581 557.417 130.778C560.211 132.375 562.207 133.971 563.404 135.767C564.601 137.363 565.2 139.558 565.2 142.352V151.731C565.2 155.922 563.604 158.117 560.61 158.117C559.014 158.117 556.42 157.319 553.027 155.722C541.653 150.534 528.881 147.94 514.713 147.94C503.338 147.94 494.358 149.736 488.172 153.527C481.986 157.319 478.793 163.106 478.793 171.288C478.793 176.875 480.789 181.664 484.78 185.456C488.771 189.247 496.154 193.039 506.731 196.431L535.067 205.411C549.435 210.001 559.812 216.387 565.998 224.568C572.184 232.75 575.178 242.129 575.178 252.506C575.178 261.087 573.382 268.869 569.989 275.654C566.397 282.439 561.608 288.426 555.422 293.215C549.236 298.204 541.852 301.796 533.271 304.39C524.291 307.184 514.912 308.58 504.735 308.58Z" fill="#252F3E"/>
<path fill-rule="evenodd" clip-rule="evenodd" d="M542.451 405.564C476.798 454.055 381.411 479.798 299.394 479.798C184.451 479.798 80.8831 437.293 2.65809 366.651C-3.52808 361.063 2.05943 353.48 9.44291 357.87C94.0537 406.96 198.42 436.694 306.379 436.694C379.216 436.694 459.237 421.528 532.872 390.398C543.848 385.409 553.227 397.581 542.451 405.564Z" fill="#FF9900"/>
<path fill-rule="evenodd" clip-rule="evenodd" d="M569.79 374.433C561.408 363.657 514.314 369.245 492.962 371.839C486.576 372.637 485.578 367.05 491.365 362.859C528.881 336.518 590.543 344.101 597.727 352.881C604.911 361.861 595.732 423.523 560.61 453.057C555.222 457.647 550.034 455.252 552.429 449.266C560.411 429.51 578.171 385.009 569.79 374.433Z" fill="#FF9900"/>
</svg>
